!!!ONB: MCCC : ICD0013_01 : Extracted Monophonic Melody
!!!COM: Debussy, Claude
!!!OPR: Sonate pour violoncelle et piano ; Cello Sonata
!!!OMV: 1
!!!SCT:  CD 144 ; L.135
!!!ODT: 1915///
**kern
*staff1
*clefG2
*k[b-]
*d:
*M4/4
32DD
32GG
32D
32G
4d
8d
8e
8f
16e
16d
=5
32e
32g
32f
32e
8d
32r
32e
32d
32c
32A
32c
32A
32G
32E
32G
32F
32E
8D
32r
32GG
32D
32F
32A
32D
32G
32B
=6
32e
32G
32d
32f
32a
32d
48g
24b-
4b-[
16b-]
16f#
16B-
16c
16E-
16AA-
16E-
16c
=7
2b-[
16b-]
16f#
16B-
16c
16e-
16f
16f#
16g#
=8
8r
8a
8f
8e
8r
16a
16f
4e[
=9
8e]
16d
16c
4A[
8A]
8F
8E
8D
=10
8r
8BB-
8C
8D
8E
16D
16C
4BB-[
=11
8BB-]
8AA
2GG
4r
=12
8r
8a
8f
8e
8r
16a
16f
4e[
=13
8e]
16d
16c
4A-[
8A-]
8B-
8c
8d
=14
2r
8r
16A
16F
4E[
=15
8E]
16D
16C
8D
16F
16G
2D
=16
16B
16c
16d
16e
16B
16c#
16d
16e
16B
16c
16d
16e
16B
16c#
16d
16e[
=17
24e]
24f
24g
8f[
16f]
16e
32d
32f
32e
32d
16A
16G
16F
16D
16E
16F
16G
16A
=18
16B
16c
16d
16e
16B
16c#
16d
16e
16B
16c
16d
16e
16B
16c#
16d
16e
=19
24g
24a
24b-
8a[
16a]
16cc
16b-
16a
16g
16f
8d[
16d]
16c
16A
16G
=20
16G
16F
8D[
16D]
16C
16AA
16GG[
16GG]
16C
16AA
16GG[
16GG]
16C
16AA
16GG[
=21
16GG]
16C
16AA
16GG[
16GG]
16C
16AA
16GG[
16GG]
16C
16AA
16GG[
16GG]
16C
16AA
16GG[
=22
16GG]
16C
16AA
16GG[
16GG]
16C
16AA
16GG[
16GG]
16C
16AA
16GG[
16GG]
16C
16AA
16GG[
=23
16GG]
16C
16AA
16GG[
16GG]
16C
16AA
16GG[
16GG]
16C
16AA
16GG[
16GG]
16C
16AA
16GG[
=24
16GG]
16C
16AA
16GG[
16GG]
16C
16AA
16GG[
16GG]
16C
16AA
16GG[
16GG]
16C
16AA
16GG[
=25
16GG]
16C
16AA
16GG[
16GG]
16C
16AA
16GG[
16GG]
16C
16AA
16GG[
16GG]
16C
16AA
16GG[
=26
16GG]
16C
16AA
16GG[
16GG]
16C
16AA
16GG[
16GG]
16C
16AA
16GG[
16GG]
16C
16AA
16GG[
=27
16GG]
16C
16AA
16GG[
16GG]
16C
16AA
16GG[
16GG]
16C
16AA
16GG[
16GG]
16C
16AA
16GG[
=28
16GG]
16C
16AA
16D
16C
16F
16D
16G
16AA
16D
16C
16F
16D
16G
16F
16A
=29
8r
24g
24a
24b
4a[
16a]
32r
32b
8cc
8b
16a
16g
=30
8g
16f
16e
2d
4A
=31
8g
32r
32a
32b-
32a
8g
32r
32f
32e
32f
4.g
16f
16e
=32
8d
24c
24B-
24A
4B-[
8B-]
16.A[
64A]
64A
8G
16F
32E
32D
=33
8r
24C
24D
24E
4D[
8D]
8F
8E
16D
16C
=34
12GG
12AA
12BB
4AA[
8AA]
4C
8GG[
=35
12GG]
12CC
12GG
12D
12GG
12E
12A
12CC
12GG
12D
12GG
12E
=36
12A
12C
12G
12d
12G
12e
2a
=37
32r
32b-
32cc
32b-
32a
32g
32e-
32g
32a
32b-
32cc
32b-
32a
32g
32e
32g
32a
32b-
32cc
32b-
32a
32g
32e-
32g
32a
32b-
32cc
32b-
32a
32g
32e
32g[
=38
32g]
32f
32e-
32g
32f
32e
32g
32f
32e-
32g
32f
32e-
32a
32g
32f
32e
32g
32f
32e-
32g
32f
32e
32g
32f
32e-
32g
32f
32e
32a
32g
32f
32e-
=39
8r
8a
8f
8e
8r
16a
16f
4e[
=40
8e]
16d
16c
4A[
8A]
8F
8E
8D
=41
8r
8BB-
8C
8D
8E
16D
16C
4BB-[
=42
8BB-]
8AA
2GG
4r
=43
4r
8f
8e
8r
16a
16f
4e[
=44
8e]
16d
16c
4A[
8A]
8F
8E
8D
=45
8r
24C
24D
24E
4D[
8D]
8F
8E
16D
16C
=46
8C
16BB-
16AA
4BB-[
8BB-]
8GG
8FF
8GG
=47
8r
24CC
24DD
24EE
4DD
8r
24CC
24DD
24EE
4DD
=48
8DD
16AA
16C
16E
16D
16A
16c
8e
8d
8a
8cc
=49
2ee
2a
=50
1aa[
=51
2aa]
2r
==
*-
